X: 4158
T: GALWAY REEL
%R: reel
B: James Kerr "Merry Melodies" v.4 p.19 #158
Z: 2016 John Chambers <jc:trillian.mit.edu>
M: C|
L: 1/8
K: D
|:\
ADFD ADFA | (3(BdB) (BA) BcdB |\
ADFD ADFD | DGFG E2D2 ::\
d2(fd) edcB | ABcd efge |\
[1 d2(fd) edcA | BGFG E2D2 :|\
[2 fdec dBAF | DGFG E2D2 |]

%%sep 1 1 500
%%sep 1 1 500

